X:110
M:3/4
L:1/8
K:G
M:2/4
L:1/8
|:G/g/f/e/ d/c/B/A/|D/d/c/B/ A/G/F/E/|DD D2 |B/d/B/G/ c/e/c/A/|f/d/e/f/ gg|B/d/B/G/ A/c/A/F/|GG G2:|

